static/img/cam-server/ico-people-list-mode.svg

<svg width="20" height="20" viewBox="0 0 20 20" fill="none" xmlns="http://www.w3.org/2000/svg">
<rect x="6" y="4" width="12" height="1" rx="0.5" fill="#111111"/>
<circle cx="3.5" cy="4.5" r="1" stroke="#111111"/>
<path d="M4 10.5C4 10.2239 3.77614 10 3.5 10C3.22386 10 3 10.2239 3 10.5C3 10.7761 3.22386 11 3.5 11V12C2.67157 12 2 11.3284 2 10.5C2 9.67157 2.67157 9 3.5 9C4.32843 9 5 9.67157 5 10.5C5 11.3284 4.32843 12 3.5 12V11C3.77614 11 4 10.7761 4 10.5Z" fill="#111111"/>
<path d="M6 10.5C6 10.2239 6.22386 10 6.5 10H17.5C17.7761 10 18 10.2239 18 10.5C18 10.7761 17.7761 11 17.5 11H6.5C6.22386 11 6 10.7761 6 10.5Z" fill="#111111"/>
<path d="M4 16.5C4 16.2239 3.77614 16 3.5 16C3.22386 16 3 16.2239 3 16.5C3 16.7761 3.22386 17 3.5 17V18C2.67157 18 2 17.3284 2 16.5C2 15.6716 2.67157 15 3.5 15C4.32843 15 5 15.6716 5 16.5C5 17.3284 4.32843 18 3.5 18V17C3.77614 17 4 16.7761 4 16.5Z" fill="#111111"/>
<path d="M6 16.5C6 16.2239 6.22386 16 6.5 16H17.5C17.7761 16 18 16.2239 18 16.5C18 16.7761 17.7761 17 17.5 17H6.5C6.22386 17 6 16.7761 6 16.5Z" fill="#111111"/>
</svg>

<svg xmlns="http://www.w3.org/2000/svg" width="20" height="20" fill="none" viewBox="0 0 20 20"><rect width="12" height="1" x="6" y="4" fill="#111" rx=".5"/><circle cx="3.5" cy="4.5" r="1" stroke="#111"/><path fill="#111" d="M4 10.5a.5.5 0 1 0-.5.5v1a1.5 1.5 0 1 1 0-3 1.5 1.5 0 0 1 0 3v-1a.5.5 0 0 0 .5-.5M6 10.5a.5.5 0 0 1 .5-.5h11a.5.5 0 0 1 0 1h-11a.5.5 0 0 1-.5-.5M4 16.5a.5.5 0 1 0-.5.5v1a1.5 1.5 0 1 1 0-3 1.5 1.5 0 0 1 0 3v-1a.5.5 0 0 0 .5-.5M6 16.5a.5.5 0 0 1 .5-.5h11a.5.5 0 0 1 0 1h-11a.5.5 0 0 1-.5-.5"/></svg>
